assets/img/alias/openminter.svg

<svg width="38" height="23" viewBox="0 0 38 23" fill="none" xmlns="http://www.w3.org/2000/svg">
  <path d="M26.9237 3.69138C28.3842 3.69179 29.8118 4.12526 31.0259 4.93697C32.2401 5.74868 33.1863 6.90218 33.7449 8.25163C34.3035 9.60107 34.4495 11.0858 34.1643 12.5182C33.8791 13.9506 33.1756 15.2663 32.1427 16.2989C31.1099 17.3314 29.794 18.0346 28.3615 18.3193C26.9291 18.6041 25.4443 18.4577 24.0951 17.8987C22.7458 17.3397 21.5925 16.3932 20.7812 15.1788C19.9698 13.9644 19.5367 12.5367 19.5367 11.0762C19.539 9.11796 20.318 7.24057 21.7029 5.85607C23.0878 4.47156 24.9654 3.69305 26.9237 3.69138ZM26.9237 1.99727e-07C24.7324 -0.000415798 22.5903 0.649017 20.7681 1.86616C18.946 3.0833 17.5257 4.81348 16.687 6.83787C15.8482 8.86225 15.6286 11.0899 16.056 13.2391C16.4834 15.3883 17.5386 17.3624 19.088 18.9119C20.6375 20.4614 22.6117 21.5165 24.7608 21.9439C26.91 22.3713 29.1377 22.1517 31.1621 21.313C33.1865 20.4742 34.9166 19.054 36.1338 17.2318C37.3509 15.4097 38.0004 13.2675 37.9999 11.0762C37.9999 8.13863 36.833 5.32135 34.7558 3.24415C32.6786 1.16696 29.8613 1.99727e-07 26.9237 1.99727e-07Z" fill="#2764F6" />
  <path d="M0.0615203 16.4967C0.00675277 16.4112 -0.0124639 16.3077 0.0079688 16.2083C0.0284015 16.1089 0.0868663 16.0214 0.170894 15.9645L6.97522 11.3687C6.97522 11.3687 7.63357 10.8513 6.97522 10.4033C6.41153 10.0204 1.63062 6.82757 0.244512 5.89578C0.195002 5.8624 0.152596 5.81953 0.119739 5.76967C0.0868832 5.71981 0.064228 5.66393 0.0530816 5.60526C0.0419351 5.5466 0.042518 5.48631 0.0547967 5.42787C0.0670753 5.36943 0.0908066 5.314 0.124621 5.26478L1.59696 3.12357C1.65325 3.04605 1.7367 2.9926 1.83066 2.97389C1.92462 2.95517 2.02217 2.97257 2.10387 3.02261L12.1368 9.6734C12.1368 9.6734 12.7258 10.1677 12.751 10.8513C12.7797 11.154 12.7218 11.4587 12.584 11.7298C12.4462 12.0009 12.2342 12.2272 11.9728 12.3825L2.1228 18.9807C2.07923 19.0099 2.03024 19.0302 1.97873 19.0402C1.92723 19.0502 1.87424 19.0498 1.82288 19.039C1.77153 19.0282 1.72285 19.0073 1.67972 18.9774C1.63659 18.9475 1.59987 18.9093 1.57172 18.865L0.0615203 16.4967Z" fill="#7EFBC5" />
</svg>

<svg width="38" height="23" fill="none" xmlns="http://www.w3.org/2000/svg"><path d="M26.924 3.691a7.385 7.385 0 1 1-7.387 7.385 7.394 7.394 0 0 1 7.387-7.385Zm0-3.691a11.078 11.078 0 1 0-.004 22.157A11.078 11.078 0 0 0 26.924 0Z" fill="#2764F6"/><path d="M.062 16.497a.39.39 0 0 1 .109-.533l6.804-4.595s.659-.518 0-.966c-.563-.383-5.344-3.575-6.73-4.507a.452.452 0 0 1-.12-.631l1.472-2.141a.38.38 0 0 1 .507-.101l10.033 6.65s.589.495.614 1.178a1.605 1.605 0 0 1-.778 1.531l-9.85 6.599a.394.394 0 0 1-.551-.116l-1.51-2.368Z" fill="#7EFBC5"/></svg>
